X:215
T:Dutch Crossing
C:Colin Hume, 1990
M:2/2
L:1/4
S:Colin Hume's website,  colinhume.com  - chords can also be printed below the stave.
Q:1/2=112
K:G
P:A
|: "G"G G/A/ BG | "Am"c4 | "D7"F F/G/ AF | "G"B3 G |\
"D"A3/ G/FA | "G"BGGB | "A7"A A/B/ ^cA | "D"d3 d |
"C"e3/ f/ gf/e/ | "G"dgdB | "Am"ce "D7"cA | "G"Bd-d (3: d/e/f/ |\
"C"gecA | "D"FEDd | "C"ec "D7"fd |1 "G"g4 :|2 "G"g =f "G7"ed |
P:C
|: "C"cG[ce]G | "C"[Bd]G[Ac]G | "G"Bcde | "G7"=fdcB |\
"C"cG[ce]G | "C"[Bd]G[Ac]G | "G"Bc "G7"dB |1 "C"cGAB :|2 "C"c4 |
P:D
|: "D7"A3/B/cA | "G"dBGF | "C"E3/F/GE | "D"AFD2 |\
"C"e3/d/ce | "G"dGGg | "Am"e d/c/ "D7"BA | "G"G4 :|

